X:1
T: Dan Rogers' Jig
C:
R:Jig
Q:180
K:Em
M:6/8
L:1/16
d2|g2d2B2 B4A2|B4A2 B2c2d2|e2f2e2 e2d2B2|d2B2A2 A2B2d2|g2d2B2 B4A2|B4A2 B2c2d2|e2f2g2 f2e2d2|e6 d2e2f2|
g2d2B2 B4A2|B4A2 B2c2d2|e2f2e2 e2d2B2|d2B2A2 A2B2d2|g2d2B2 B4A2|B4A2 B2c2d2|e2f2g2 f2e2d2|e6 e4f2|
g2b2g2 f2a2f2|g2f2g2 e2d2B2|e2d2B2 B2e2d2|B2A2A2 A4ef|g2b2g2 f2a2f2|g2f2g2 e2f2g2|a2g2a2 B2c2d2|e6 e4f2|
g2b2g2 f2a2f2|g2f2g2 e2d2B2|e2d2B2 B2e2d2|B2A2A2 A4ef|g2b2g2 f2a2f2|g2f2g2 e2f2g2|a2g2a2 B2c2d2|e6 e4||
